X:1
T:Title
%%score 1 { 2 | 3 }
L:1/8
Q:1/4=110
M:4/4
K:G
V:1 treble nm="Grand Piano, Soprano"
V:2 treble nm="Choir Pad, Colima, 11.11.11 D"
V:3 bass 
V:1
 [GB]2 [DG]2 [Ac]2 [FA]2 | [Gd]4 [GB]4 | [FA]2 [DF]2 [DG]2 [GB]2 | [FA]6 z2 | %4
w: By~William~Fiske~Sherwin,~181 * * *||||
 [GB]2 [DG]2 [Fc]2 [FA]2 | [Gd]4 [GB]4 | [EA]2 [Ac]2 [GB]2 [DFA]2 | [DG]6 z2 | %8
w: ||||
 [EG]2 [CE]2 [EG]2 [EA]2 | [DB]4 [DB]4 | [Dd]2 [E^c]2 [FB]2 [E_B]2 | [DB]6 z2 | %12
w: ||||
 [Dc]2 [DA]2 [Fd]2 [Ac]2 | [GB]4 [DG]4 | [CE]2 [EG]2 [DF]2 [CA]2 | [B,G]6 z2 | %16
w: ||||
 [GB]2 [DG]2 [Ac]2 [FA]2 | [Gd]4 [GB]4 | [FA]2 [DF]2 [DG]2 [GB]2 | [FA]6 z2 | %20
w: ||||
 [GB]2 [DG]2 [Fc]2 [FA]2 | [Gd]4 [GB]4 | [EA]2 [Ac]2 [GB]2 [DA]2 | [DG]8 |] %24
w: ||||
V:2
 D2 B,2 D2 D2 | D4 D4 | D2 C2 B,2 D2 | D6 z2 | D2 B,2 A,2 D2 | D4 D4 | C2 E2 D2 C2 | B,6 z2 | %8
 G,2 G,2 G,2 G,2 | G,4 G,4 | B,2 ^C2 D2 C2 | B,6 z2 | F,2 F,2 A,2 D2 | D4 G,4 | G,2 C2 A,2 F,2 | %15
 G,6 z2 | D2 B,2 D2 D2 | D4 D4 | D2 D2 D2 D2 | D6 z2 | D2 B,2 A,2 D2 | D4 D4 | C2 E2 D2 C2 | B,8 |] %24
V:3
 G,2 G,2 D,2 C,2 | B,,2 D,2 G,2 B,2 | C2 A,2 z2 G,2 | D,6 z2 | G,2 G,2 D,2 C,2 | B,,4 G,,4 | %6
 C,2 A,,2 D,2 D,2 | G,,6 z2 | C,2 C,2 C,2 C,2 | G,,4 z4 | F,2 F,2 F,2 F,2 | B,,6 z2 | %12
 D,2 D,2 D,2 F,2 | G,4 B,,4 | C,2 C,2 D,2 D,2 | G,,6 z2 | G,2 G,2 D,2 C,2 | B,,2 D,2 G,2 B,2 | %18
 C2 A,2 B,2 G,2 | D,6 z2 | G,2 G,2 D,2 C,2 | B,,4 G,,4 | C,2 A,,2 D,2 D,2 | G,,8 |] %24

